X:449
T: Jiaosheng laoban ni xi ting
N: C1484
O: China, Yunnan, Gejiu
S: II, 51]
R: Shange]
M: 2/4
L: 1/16
K: Bb
c2c2f2dc | c8- | c6d2 | b2d2c2z2
b2c2c2ag | f6d2 | g4f2g2 | c8
fdcdfdfg | c2gca3g | f6d2 | g4f2g2 | c8

